img/menu_icon.svg

<svg width="24" height="12" viewBox="0 0 24 12" fill="none" xmlns="http://www.w3.org/2000/svg">
<path d="M1.05366 2.00739H22.9346C23.52 2.00739 24 1.55268 24 0.998152C24 0.443623 23.52 0 22.9346 0H1.05366C0.468293 0 0 0.443623 0 0.998152C0 1.54159 0.468293 2.00739 1.05366 2.00739ZM1.05366 6.99815H22.9346C23.52 6.99815 24 6.54344 24 6C24 5.43438 23.52 4.97967 22.9346 4.97967H1.05366C0.468293 4.97967 0 5.43438 0 6C0 6.54344 0.468293 6.99815 1.05366 6.99815ZM1.05366 12H22.9346C23.52 12 24 11.5453 24 10.9797C24 10.4251 23.52 9.98152 22.9346 9.98152H1.05366C0.468293 9.98152 0 10.4362 0 10.9797C0 11.5342 0.468293 12 1.05366 12Z" fill="black"/>
</svg>

<svg width="24" height="12" fill="none" xmlns="http://www.w3.org/2000/svg"><path d="M1.054 2.007h21.88C23.52 2.007 24 1.553 24 .998 24 .444 23.52 0 22.935 0H1.054C.468 0 0 .444 0 .998c0 .544.468 1.01 1.054 1.01zm0 4.991h21.88C23.52 6.998 24 6.543 24 6c0-.566-.48-1.02-1.065-1.02H1.054C.468 4.98 0 5.434 0 6c0 .543.468.998 1.054.998zm0 5.002h21.88C23.52 12 24 11.545 24 10.98c0-.555-.48-.998-1.065-.998H1.054c-.586 0-1.054.454-1.054.998C0 11.534.468 12 1.054 12z" fill="#000"/></svg>
